!!!COM: Beethoven, Ludwig van
!!!CDT: 1770///-1827///
!!!OTL: Piano Sonata no. 16 in G major
!!!OPS: 31
!!!ONM: 1
!!!OMV: 3
!!!OMD: Rondo: Allegretto
!!!AGN: Rondo
**kern	**kern	**dynam
*staff2	*staff1	*staff1/2
*Ipiano	*Ipiano	*Ipiano
*clefF4	*clefG2	*
*k[f#]	*k[f#]	*k[f#]
*G:	*G:	*G:
*M4/4	*M4/4	*M4/4
*MM160	*MM160	*MM160
.	(8eeq	.
2r	(8ddL)	p
.	8cc#	.
.	8dd	.
.	8eeJ)	.
=1	=1	=1
*^	*^	*
4r	[1D	4dd'	4r	.
4B	.	(4d	[2.d	.
4c	.	4e	.	.
4A	.	4f#	.	.
=2	=2	=2	=2	=2
4B	2.D]	2g	1d_	.
4G	.	.	.	.
4F#	.	8bL	.	.
.	.	8a	.	.
4D	[4D	8g	.	.
.	.	8aJ	.	.
=3	=3	=3	=3	=3
4G	1D]	4b	4d]	.
4F#	.	4g	2g	.
4E	.	4cc#	.	.
4c#	.	4a	4g	.
=4	=4	=4	=4	=4
4D	[1D	2dd)	2f#	.
2dz	.	.	.	>
.	.	(8eeq	.	.
.	.	(>8ddL>)	2ryy	.
.	.	8cc#	.	.
4c#	.	8dd	.	.
.	.	8eeJ)	.	]
=5	=5	=5	=5	=5
4cn	1D_	4dd'/	4ryy	.
4B	.	(4d	2.d	.
4c	.	4e	.	.
4A	.	4f#	.	.
!!LO:LB:g=original
=6	=6	=6	=6	=6
4B	1D]	2g	[1d	.
4G	.	.	.	.
4F#	.	8bL	.	>
.	.	8a	.	.
4D	.	8g	.	.
.	.	8aJ	.	]
*v	*v	*	*	*
=7	=7	=7	=7
4G	4b	4d]	.
4E	4g	[4e	.
4C	4a 4cc	4e]	.
4D	4f# 4a)	4c	.
*	*v	*v	*
=8	=8	=8
*^	*	*
4ryy	(<4GG	4B 4g	<
!	!	!LO:TX:i:t=cresc.	!
(2G	[2.Gz)	4r	.
.	.	4b (4gg	.
4A	.	4cc 4ff#	.
=9	=9	=9	=9
4B	1G_	4dd 4ffn	.
4c	.	4g 4ee)	f
4e-	.	4g' 4cc' 4ee-'	.
4f#X)	.	4a' 4cc' 4ee-'	.
=10	=10	=10	=10
*	*	*^	*
4g^	4G]	2ryy	4cc (4ee-	.
4G/	2.ryy	.	4b 4dd)	p
(>4d	.	(8eenL	2f# 2a	.
.	.	8dd	.	.
4D	.	8cc#	.	.
.	.	8ddJ)	.	.
*v	*v	*	*	*
=11	=11	=11	=11
4G	(4b	2d 2g	.
4GG	4dd)	.	.
4D	8eeL	2f# 2a	.
.	8dd	.	.
4DD)	8cc#	.	.
.	8ddJ	.	.
!!LO:LB:g=original
=12	=12	=12	=12
*^	*	*	*
4GG	4ryy	4b	4d 4g	<
!	!	!LO:TX:i:t=cresc.	!	!
(2G	[2.Gz	2.ryy	4r	.
.	.	.	4b (4gg	.
4A	.	.	4cc 4ff#	.
*	*	*v	*v	*
=13	=13	=13	=13
4B	1G_	4dd 4ffn	<
4c	.	4g 4ee)	.
4e-	.	4g' 4cc' 4ee-'	f
4f#X)	.	4a' 4cc' 4ee-'	[
*v	*v	*	*
=14	=14	=14
*	*^	*
4G] 4g	2ryy	4cc (4ee-	>
4G	.	4b 4dd)	]
(4d	(8eenL	2f# 2a	p
.	8dd	.	.
4D	8cc#	.	.
.	8ddJ)	.	.
=15	=15	=15	=15
4G	(4b	2d 2g	.
4GG	4dd)	.	.
4D/	(8eeL	2f# 2a	.
.	8dd	.	.
4DD)	8cc#	.	.
.	8ddJ)	.	.
*	*v	*v	*
=16	=16	=16
(4GG	4d 4g 4b	.
4GGG)	4r	.
(8Eq	.	.
(8DL>)	2r	f
8C#	.	.
8D	.	.
8EJ)	.	.
!!LO:LB:g=original
=17	=17	=17
*^	*	*
4D'/	4ryy	12r	.
.	.	12bbL	f
.	.	12cccJ	.
(4DD	2.DD	12dddL	.
.	.	12ccc	.
.	.	12bbJ	.
*	*	*Xtuplet	*
4EE	.	12cccL	.
.	.	12aa	.
.	.	12bbJ	.
4FF#	.	12cccL	.
.	.	12bb	.
.	.	12aaJ	.
=18	=18	=18	=18
2GG	[1DD	12bbL	.
.	.	12gg	.
.	.	12aaJ	.
.	.	12bbL	.
.	.	12aa	.
.	.	12ggJ	.
8BBL	.	12ff#L	.
.	.	12ee	.
8AA	.	.	.
.	.	12ddJ	.
8GG	.	12ccL	.
.	.	12b	.
8AAJ	.	.	.
.	.	12aJ	.
=19	=19	=19	=19
4BB	2DD]	12gL	.
.	.	12dd	.
.	.	12cc#J	.
4GG	.	12ddL	.
.	.	12b	.
.	.	12aJ	.
4C#	2DD	12gL	.
.	.	12ee	.
.	.	12dd#J	.
4AA	.	12eeL	.
.	.	12cc#	.
.	.	12gJ	.
=20	=20	=20	=20
2D)	2DD	12f#L	.
.	.	12ddn	.
.	.	12cc#J	.
.	.	12ddL<	.
.	.	12a	.
.	.	12f#J	.
(8Eq	.	.	.
(8DL>)	2ryy	4d	.
8C#	.	.	.
8D	.	4r	.
8EJ)	.	.	.
!!LO:LB:g=original
=21	=21	=21	=21
4D'/	4ryy	12r	.
.	.	12bbL	.
.	.	12cccJ	.
(4DD	[2.DD	12dddL	.
.	.	12ccc	.
.	.	12bbJ	.
4EE	.	12cccL	.
.	.	12aa	.
.	.	12bbJ	.
4FF#	.	12cccL	.
.	.	12bb	.
.	.	12aaJ	.
=22	=22	=22	=22
2GG	1DD_	12bbL	.
.	.	12gg	.
.	.	12aaJ	.
.	.	12bbL	.
.	.	12aa	.
.	.	12ggJ	.
8BBL	.	12ff#L	.
.	.	12ee	.
8AA	.	.	.
.	.	12ddJ	.
8GG	.	12ccL	.
.	.	12b	.
8AAJ	.	.	.
.	.	12aJ	.
=23	=23	=23	=23
4BB	2DD]	12gL	.
.	.	12f#	.
.	.	12gJ	.
4GG	.	12aL	.
.	.	12b	.
.	.	12ccJ	.
4Cn	2DD	12dd'	.
.	.	12dL	.
.	.	12c#J	.
4AA)	.	12dL	.
.	.	12e	.
.	.	12f#J	.
=24	=24	=24	=24
4GGG 4GG	4ryy	4g	.
4r	[2.GGz	4r	.
(4G	.	(>8GL	p
.	.	8g	<
!	!	!LO:TX:i:t=cresc.	!
4F#	.	8A	.
.	.	8aJ	.
!!LO:LB:g=original
=25	=25	=25	=25
4Fn	1GG_	8B 8gL	.
.	.	8b	.
4E	.	8cn 8g	.
.	.	8ccJ	.
4E-	.	8c# 8g 8b-L	.
.	.	8cc#	.
4E-)	.	8c# 8g 8b-	f
.	.	8cc#J)	.
=26	=26	=26	=26
*	*	*^	*
(4E-	2GG]	8c# 8g (>8b-L	2ryy	>
.	.	8cc#	.	.
4D)	.	8d 8g 8bn	.	.
.	.	8ddJ)	.	.
(12DDL>	2ryy	(8eenL	2f# 2a	] p
12D	.	.	.	.
.	.	8dd	.	.
12F#	.	.	.	.
12A	.	8cc#X	.	.
12F#	.	.	.	.
.	.	8ddJ)	.	.
12DJ)	.	.	.	.
*v	*v	*	*	*
=27	=27	=27	=27
12GGL	(4b	2d 2g	.
12D	.	.	.
12G	.	.	.
12B	4dd)	.	.
12G	.	.	.
12DJ	.	.	.
12DDL	(8eeL	2f# 2a	.
12D	.	.	.
.	8dd	.	.
12F#	.	.	.
12A	8cc#	.	.
12F#	.	.	.
.	8ddJ)	.	.
12DJ	.	.	.
=28	=28	=28	=28
*^	*	*	*
4GG	[1GG	4b	4d 4g	.
(2Gz	.	4r	2.ryy	.
.	.	(8gL	.	p
.	.	8gg	.	.
!	!	!LO:TX:i:t=cresc.	!	!
4F#	.	8a	.	.
.	.	8ggJ	.	.
*	*	*v	*v	*
!!LO:LB:g=original
=29	=29	=29	=29
4Fn	1GG_	8g 8bL	.
.	.	8gg	.
4E	.	8g 8cc	.
.	.	8ggJ	.
4E-	.	8g 8b- 8cc#L	.
.	.	8gg	f
4E-)	.	8g 8b- 8cc#	.
.	.	8ggJ)	.
=30	=30	=30	=30
(4E-	2GG]	8g 8b- (8cc#L	>
.	.	8gg	.
4D)	.	8g 8bn 8dd	.
.	.	8ggJ)	.
(8EnL	4DD	(12f#L>	] p
.	.	12a	.
8D	.	.	.
.	.	12dd	.
8C#	4r	12ff#	.
.	.	12dd	.
8DJ)	.	.	.
.	.	12aJ)	.
=31	=31	=31	=31
(4BB	2GG	12gL	.
.	.	12b	.
.	.	12dd	.
4D)	.	12gg	.
.	.	12dd	.
.	.	12bJ	.
(8EL	4DD	12f#L	.
.	.	12a	.
8D	.	.	.
.	.	12dd	.
8C#	4r	12ff#	.
.	.	12dd	.
8DJ)	.	.	.
.	.	12aJ	.
=32	=32	=32	=32
4BB	4GG	12gL	.
.	.	12b	.
.	.	12dd	.
4r	2.ryy	12gg	.
.	.	12dd	.
.	.	12bJ	.
12BBL	.	(8cccL	.
12F#	.	.	.
.	.	8bb	.
12B	.	.	.
12d#	.	8aa#	.
12B	.	.	.
.	.	8bbJ)	.
12F#J	.	.	.
*v	*v	*	*
!!LO:LB:g=original
=33	=33	=33
12EL	(4gg	.
12G	.	.
12B	.	.
12e	4bb)	.
12B	.	.
12GJ	.	.
!	!LO:TX:i:t=cresc.	!
12BBL	(8cccL	<
12F#	.	.
.	8bb	.
12B	.	.
12d#	8aa#	.
12B	.	.
.	8bbJ)	.
12F#J	.	.
=34	=34	=34
12EL	(4gg	.
12G	.	.
12B	.	.
12e	4bb)	.
12B	.	.
12GJ	.	.
*	*tuplet	*
(8BBL	12cc#L	f
.	12ee	.
8AA	.	.
.	12aa	.
8GG#	12ccc#	.
.	12aa	.
8AAJ)	.	.
.	12eeJ	.
*	*Xtuplet	*
=35	=35	=35
(4FF#	12ddL	.
.	12ff#	.
.	12aa	.
4AA)	12ddd	.
.	12aa	.
.	12ff#J	.
(8BBL	12cc#L	.
.	12ee	.
8AA	.	.
.	12aa	.
8GG#	12ccc#	.
.	12aa	.
8AAJ)	.	.
.	12eeJ	.
=36	=36	=36
(4FF#	12ddL	.
.	12ff#	.
.	12aa	.
4AA)	12ddd	.
.	12aa	.
.	12ff#J	.
*Xtuplet	*	*
12CC#L<	(8bbL	p <
12C#	.	.
.	8aa	.
12E	.	.
12A	8gg#	.
12E	.	.
.	8aaJ)	.
12C#J	.	[
!!LO:LB:g=original
=37	=37	=37
*	*^	*
12DDL	2ryy	(8ggnL	.
12D	.	.	.
.	.	8ff#	.
12F#	.	.	.
12A	.	8ee#	.
12F#	.	.	.
.	.	8ff#J)	.
12DJ	.	.	.
12EEL<	(8ff#L	4g# 4b	sf
12D	.	.	.
.	8een	.	.
12E	.	.	.
12G#	8dd#	4g# 4b	.
12E	.	.	.
.	8eeJ)	.	.
12DJ	.	.	.
=38	=38	=38	=38
12AAL	(8ff#L	4a 4cc#	.
12C#	.	.	.
.	8ee	.	.
12E	.	.	.
12A	8dd#	4r	.
12E	.	.	.
.	8eeJ)	.	.
12C#J	.	.	.
12CC#L<	(8bbL	2ryy	p <
12C#	.	.	.
.	8aa	.	.
12E	.	.	.
12A	8gg#	.	.
12E	.	.	.
.	8aaJ)	.	.
12C#J	.	.	[
=39	=39	=39	=39
12DDL	2ryy	(8ggnL	.
12D	.	.	.
.	.	8ff#	.
12F#	.	.	.
12A	.	8ee#	.
12F#	.	.	.
.	.	8ff#J)	.
12DJ	.	.	.
12EEL<	(8ff#L	4g# 4b	sf
12D	.	.	.
.	8een	.	.
12E	.	.	.
12G#	8dd#	4g# 4b	.
12E	.	.	.
.	8eeJ)	.	.
12DJ	.	.	.
=40	=40	=40	=40
12AAL	(8ff#L	4a 4cc#	.
12C#	.	.	.
.	8ee	.	.
12E	.	.	.
12A	8dd#	4r	.
12E	.	.	.
.	8eeJ)	.	.
12C#J	.	.	.
12EEL<	(8ff#L	4g# 4b	sf
12D	.	.	.
.	8ee	.	.
12E	.	.	.
12G#	8dd#	4g# 4b	.
12E	.	.	.
.	8eeJ)	.	.
12DJ	.	.	.
!!LO:LB:g=original
=41	=41	=41	=41
12AAL	(8ff#L	4a 4cc#	.
12C#	.	.	.
.	8ee	.	.
12E	.	.	.
12A	8dd#	4r	.
12E	.	.	.
.	8eeJ)	.	.
12C#J	.	.	.
12EEL<	(8ff#L	4g# 4b	sf
12D	.	.	.
.	8ee	.	.
12E	.	.	.
12G#	8dd#	4g# 4b	.
12E	.	.	.
.	8eeJ)	.	.
12DJ	.	.	.
*	*v	*v	*
=42	=42	=42
(8C#q	.	.
*^	*	*
[1A)	4AA	4a	fp
.	4r	4r	.
*	*	*tuplet	*
.	4Gn	12r	.
.	.	12aL	.
.	.	12bJ	.
.	4E	12cc#L>	.
.	.	12b	.
.	.	12aJ	.
*	*	*Xtuplet	*
=43	=43	=43	=43
1A_	4F#	12r	.
.	.	(12ddL	.
.	.	12eeJ	.
.	4D	12ff#L	.
.	.	12ee	.
.	.	12ddJ)	.
.	4G	12r	.
.	.	(12aL	.
.	.	12bJ	.
.	4E	12cc#L>	.
.	.	12b	.
.	.	12aJ)	.
=44	=44	=44	=44
1A_	4F#	12r	.
.	.	(12ddL	.
.	.	12eeJ	.
.	4D	12ff#L	.
.	.	12ee	.
.	.	12ddJ)	.
.	4G	12r	.
!	!	!LO:TX:i:t=cresc.	!
.	.	(12aL<	<
.	.	12bJ	.
.	4E	12cc#L<	.
.	.	12b	.
.	.	12aJ)	.
!!LO:LB:g=original
=45	=45	=45	=45
1A_	4F#	12r	.
.	.	12ddL	.
.	.	12eeJ	.
.	4D	12ff#L	.
.	.	12ee	.
.	.	12ddJ	.
.	4E	12ggL	.
.	.	12ee	.
.	.	12cc#J	.
.	4AA	12gL	.
.	.	12e	.
.	.	12c#J	.
=46	=46	=46	=46
2ryy	4D 4A]	12dL	.
.	.	12f#	.
.	.	12dJ	.
.	4FF#	12AL	p
.	.	12F#	.
.	.	12dJ	.
[2AA	4GG	12r	sfp
.	.	12aL<	.
.	.	12bJ	.
.	4EE	12cc#L	.
.	.	12b	.
.	.	12aJ	.
=47	=47	=47	=47
1AA_	4FF#	12r	.
.	.	12ddL	.
.	.	12eeJ	.
.	4DD	12ff#L	.
.	.	12ee	.
.	.	12ddJ	.
.	4EE	12ggL	.
.	.	12ee	.
.	.	12cc#J	.
.	4AAA	12gL	.
.	.	12e	.
.	.	12c#J	.
=48	=48	=48	=48
2AA]	4DD	12dL	.
.	.	12f#	.
.	.	12dJ	.
.	4FF#	12AL	.
.	.	12F#	.
.	.	12dJ	.
2AA_	4GG	12r	sf
.	.	12aL<	.
.	.	12bJ	.
.	4EE	12cc#L	.
.	.	12b	.
.	.	12aJ	.
!!LO:LB:g=original
=49	=49	=49	=49
1AA_	4FF#	12r	.
.	.	12ddL	.
.	.	12eeJ	.
.	4DD	12ff#L	.
.	.	12ee	.
.	.	12ddJ	.
.	4EE	12ggL	.
.	.	12ee	.
.	.	12cc#J	.
.	4AAA	12gL	.
.	.	12e	.
.	.	12c#J	.
=50	=50	=50	=50
2AA]	4FF#	12dL	.
.	.	12f#	.
.	.	12aJ	.
.	4DD	12ddL	.
.	.	12ff#	.
.	.	12aaJ	.
[2AA	4EE	12ggzL	.
.	.	12ee	.
.	.	12cc#J	.
.	4AAA	12gL	.
.	.	12e	.
.	.	12c#J	.
=51	=51	=51	=51
2AA]	4FF#	12dL	.
.	.	12f#	.
.	.	12aJ	.
.	4DD	12ddL	.
.	.	12ff#	.
.	.	12aaJ	.
[2AA	4EE	12ggzL	.
.	.	12ee	.
.	.	12cc#J	.
.	4AAA	12gL	.
.	.	12e	.
.	.	12c#J	.
=52	=52	=52	=52
4AA]	4DD	12dL	p
.	.	12f#	.
.	.	12dJ	.
2.ryy	4D'	12AL	.
.	.	12a	.
.	.	12f#J	.
.	4r	12dL	.
.	.	12dd	.
.	.	12aJ	.
.	4D' 4F#'	12f#L	.
.	.	12d	.
.	.	12ddJ	.
*v	*v	*	*
!!LO:LB:g=original
=53	=53	=53
4r	12f#L	.
.	12ff#	.
.	12ddJ	.
4D' 4F#' 4A'	12aL	.
.	12f#	.
.	12ff#J	.
4r	12aL	.
.	12aa	.
.	12ff#J	.
4D' 4F#' 4A' 4d'	12ddL	.
.	12a	.
.	12aaJ	.
=54	=54	=54
!	!LO:TX:i:t=cresc.	!
4r	12ddL	<
.	12ddd	.
.	12ddJ	.
4F#` 4A` 4d`	12dddL	.
.	12dd	.
.	12dddJ	.
4E#` 4G#` 4d`	12ddL	.
.	12ddd	.
.	12ddJ	.
4F#` 4A` 4d`	12dddL	.
.	12dd	.
.	12dddJ	.
=55	=55	=55
4E#` 4G#` 4d`	12ddL	.
.	12ddd	.
.	12ddJ	.
4F#` 4A` 4d`	12dddL	.
.	12dd	.
.	12dddJ	.
4E#` 4G#` 4d`	12ddL	.
.	12ddd	.
.	12ddJ	.
4F#` 4A` 4d`	12dddL	.
.	12dd	.
.	12dddJ	.
=56	=56	=56
4E#` 4G#` 4d`	12ddL	.
.	12ddd	.
.	12ddJ	.
4F#` 4A` 4d`	12dddL	.
.	12dd	.
.	12dddJ	.
[2Gn [2B [2d	12bbL	sf
.	12ccc#	.
.	12dddJ	.
.	12ggL	.
.	12aa	.
.	12bbJ	.
!!LO:LB:g=original
=57	=57	=57
4G] 4B] 4d]	12eeL	p
.	12ff#	.
.	12ggJ	.
4G' 4g'	12bL	.
.	12ff#	.
.	12eeJ	.
4A' 4f#'	12aL	.
.	12ee	.
.	12ddJ	.
4A' 4e'	12gL	.
.	12dd	.
.	12cc#J	.
=58	=58	=58
!	!LO:TX:i:t=cresc.	!
4r	12ddL	>
.	12ddd	.
.	12ddJ	.
4F#` 4A` 4d`	12dddL	.
.	12dd	.
.	12dddJ	.
4E#` 4G#` 4d`	12ddL	.
.	12ddd	.
.	12ddJ	.
4F#` 4A` 4d`	12dddL	.
.	12dd	.
.	12dddJ	.
=59	=59	=59
4E#` 4G#` 4d`	12ddL	.
.	12ddd	.
.	12ddJ	.
4F#` 4A` 4d`	12dddL	.
.	12dd	.
.	12dddJ	.
4E#` 4G#` 4d`	12ddL	.
.	12ddd	.
.	12ddJ	.
4F#` 4A` 4d`	12dddL	.
.	12dd	.
.	12dddJ	.
=60	=60	=60
4E#` 4G#` 4d`	12ddL	f
.	12ddd	.
.	12ddJ	.
4F#` 4A` 4d`	12dddL	.
.	12dd	.
.	12dddJ	.
[2A [2cn [2d	12ddL	sf
.	12ddd	.
.	12ddJ	.
.	12dddL	.
.	12dd	.
.	12dddJ	.
!!LO:LB:g=original
=61	=61	=61
1A_ 1c_ 1d_	(12ccc#L	p
.	12eee	.
.	12dddJ)	.
.	(12gg#L	.
.	12bb	.
.	12aaJ)	.
.	(12ee#L	.
.	12ggn	.
.	12ff#J)	.
.	(12cc#L	.
.	12een	.
.	12ddJ)	.
=62	=62	=62
4A] 4c] 4d]	12ddL	f
.	12ddd	.
.	12ddJ	.
4F#` 4A` 4d`	12dddL	.
.	12dd	.
.	12dddJ	.
[2A [2c [2d	12ddL	sf
.	12ddd	.
.	12ddJ	.
.	12dddL	.
.	12dd	.
.	12dddJ	.
=63	=63	=63
1A_ 1c_ 1d_	(12ccc#L	p
.	12eee	.
.	12dddJ)	.
.	(12gg#L	.
.	12bb	.
.	12aaJ)	.
.	(12ee#L	.
.	12ggn	.
.	12ff#J)	.
.	(12cc#L	.
.	12een	.
.	12ddJ)	.
=64	=64	=64
12A] 12c] 12dL]	12ddL	.
12c	12ddd	.
12dJ	12ddJ	.
!	!LO:TX:i:t=dimin.	!
12F#L	12dddL	.
12A	12dd	.
12dJ	12dddJ	.
12AL	12ddL	.
12c	12ddd	.
12dJ	12ddJ	.
12F#L	12dddL	.
12A	12dd	.
12dJ	12dddJ	.
!!LO:LB:g=original
=65	=65	=65
12AL	12ddL	fp
12c	12ddd	.
12dJ	12ddJ	.
12F#L	12dddL	.
12A	12dd	.
12dJ	12dddJ	.
12AL	12ddL	.
12c	12ddd	.
12dJ	12ddJ	.
12F#L	12dddL	.
12A	12dd	.
12dJ	12dddJ	.
=66	=66	=66
12AL	4dd	p
12c	.	.
12dJ	.	.
12GL	4r	.
12B	.	.
12dJ	.	.
.	(8eeq	.
12F#L	(8ddL)	.
12A	.	.
.	8cc#	.
12dJ	.	.
12EL	8dd	.
12G	.	.
.	8eeJ)	.
12dJ	.	.
=67	=67	=67
12DL	4dd'	.
12F#	.	.
12dJ	.	.
12CL	(4d	.
12E	.	.
12cJ	.	.
12BBL	4e	.
12D	.	.
12BJ	.	.
12AAL	4f#	.
12C	.	.
12AJ	.	.
=68	=68	=68
12BBL	2g)	.
12D	.	.
12CJ	.	.
12BBL	.	.
12AA	.	.
12GGJ	.	.
12FF#L	(8bL	.
12AA	.	.
.	8a	.
12GGJ	.	.
12FF#L	8g	.
12EE	.	.
.	8aJ)	.
12DDJ	.	.
!!LO:LB:g=original
=69	=69	=69
12GGL	(4b	.
12FF#	.	.
12GGJ	.	.
12EEL	4g	.
12FF#	.	.
12GGJ	.	.
12AAL	4cc#	.
12BB	.	.
12AAJ	.	.
12GGL	4a)	.
12FF#	.	.
12EEJ	.	.
=70	=70	=70
12DDL	4dd	.
12FF#	.	.
12GGJ	.	.
12AAL	4r	.
12BB	.	.
12C#J	.	.
.	8eeq	.
12DL	(8ddL	.
12DD	.	.
.	8cc#	.
12DJ	.	.
12BBL	8dd	.
12D	.	.
.	8eeJ)	.
12BBJ	.	.
=71	=71	=71
12CnL	4dd'	.
12D	.	.
12CJ	.	.
12BBL	(4d	.
12D	.	.
12BBJ	.	.
12CL	4e	.
12D	.	.
12CJ	.	.
12AAL	4f#	.
12D	.	.
12AAJ	.	.
=72	=72	=72
12BBL	2g)	.
12D	.	.
12CJ	.	.
12BBL	.	.
12AA	.	.
12GGJ	.	.
12FF#L	(8bL	.
12AA	.	.
.	8a	.
12GGJ	.	.
12FF#L	8g	.
12EE	.	.
.	8aJ)	.
12DDJ	.	.
!!LO:LB:g=original
=73	=73	=73
12GGL	(4b	.
12FF#	.	.
12GGJ	.	.
12EEL	4g	.
12DD#	.	.
12EEJ	.	.
12CCL	4cc	.
12BBB	.	.
12CCJ	.	.
12DDnL	4a	.
12CC#	.	.
12DDJ	.	.
=74	=74	=74
*	*^	*
12GGGL	4g)	2ryy	.
12BBB	.	.	.
12DDJ	.	.	.
12GGL	4r	.	.
12BB	.	.	.
12DJ	.	.	.
!	!LO:TX:i:t=cresc.	!	!
8GGL	4b (4gg	[2g	<
8G	.	.	.
8AA	4cc 4ff#	.	.
8AJ	.	.	.
=75	=75	=75	=75
8BBL	4dd 4ffn	4g]	.
8B	.	.	.
8C	4cc 4ee)	2g	.
(8cJ	.	.	.
8E-L	4cc` 4ee-`	.	f
8e-	.	.	.
8F#X	4cc` 4ee-`	4a	.
8f#XJ	.	.	.
=76	=76	=76	=76
8GL	2ryy	(4cc 4ee-	>
8g	.	.	.
8GG	.	4b 4dd)	]
8GJ)	.	.	.
(8DL	(8eenL	2f# 2a	p
8d	8dd	.	.
8DD	8cc#	.	.
8DJ)	8ddJ)	.	.
!!LO:LB:g=original
=77	=77	=77	=77
(8GGL	4g (4b	4d	.
8G	.	.	.
8GGG	4dd)	4r	.
8GGJ	.	.	.
8DDL	(8eeL	2f# 2a	.
8D	8dd	.	.
8DD	8cc#	.	.
8DJ)	8ddJ)	.	.
=78	=78	=78	=78
(12GGGL	4g 4b	4d	.
12BBB	.	.	.
12DDJ	.	.	.
12GGL	4r	4r	.
12FF#	.	.	.
12GGJ)	.	.	.
!	!LO:TX:i:t=cresc.	!	!
(8GGGL	4b (4gg	[2g	<
8GG	.	.	.
8AAA	4cc 4ff#	.	.
8AAJ	.	.	.
=79	=79	=79	=79
8BBBL	4dd 4ffn	4g]	.
8BB	.	.	.
8CC	4cc 4ee)	2g	.
8CJ	.	.	.
8EE-L	4cc` 4ee-`	.	f
8E-	.	.	>
8FF#X	4cc` 4ee-`	4a	.
8F#XJ	.	.	.
=80	=80	=80	=80
8GGL>	4cc (4ee-	2g	.
8G	.	.	.
8BB	4b 4dd)	.	.
8BJ	.	.	.
8DL>	(8eenL	2f# 2a	] p
8d	8dd	.	.
8DD	8cc#	.	.
8DJ	8ddJ)	.	.
!!LO:LB:g=original
=81	=81	=81	=81
8GGL	(4b	4d 4g	.
8G	.	.	.
8GGG	4dd)	4r	.
8GGJ	.	.	.
8DDL	(8eeL	2f# 2a	.
8D	8dd	.	.
8DD	8cc#	.	.
8DJ)	8ddJ)	.	.
=82	=82	=82	=82
(4GGG	4g 4b	4d	.
4GG)	4r	4r	.
(8E-q	.	.	.
(8DL)	2r	2r	p
8C#	.	.	.
8D	.	.	.
8E-J)	.	.	.
*	*v	*v	*
=83	=83	=83
*^	*	*
4ryy	4D'	12r	.
.	.	12bb-L	.
.	.	12cccJ	.
(4DD	[2.DD	12dddL	.
.	.	12ccc	.
.	.	12bb-J	.
4EEn	.	12cccL	.
.	.	12aa	.
.	.	12bb-J	.
4FF#	.	12cccL	.
.	.	12bb-	.
.	.	12aaJ	.
=84	=84	=84	=84
2GG	1DD_	12bb-L	.
.	.	12gg	.
.	.	12aaJ	.
.	.	12bb-L	.
.	.	12aa	.
.	.	12ggJ	.
8BB-L	.	12ff#XL	.
.	.	12ee-	.
8AA	.	.	.
.	.	12ddJ	.
8GG	.	12ccL	.
.	.	12b-	.
8AAJ	.	.	.
.	.	12aJ	.
!!LO:LB:g=original
=85	=85	=85	=85
4BB-	2DD]	12gL	.
.	.	12dd	.
.	.	12cc#J	.
4GG	.	12ddL	.
.	.	12b-	.
.	.	12aJ	.
4C#	2DD	12gL	.
.	.	12een	.
.	.	12dd#J	.
4AA)	.	12eeL	.
.	.	12cc#	.
.	.	12gJ	.
*v	*v	*	*
=86	=86	=86
2DD 2D	12f#XL	.
.	12ddn	.
.	12cc#J	.
.	12ddL<	.
.	12a	.
.	12f#J	.
(8E-q	.	.
(8DL)	4d	.
8C#	.	.
8D	4r	.
8E-J	.	.
=87	=87	=87
4D')	2r	.
(4DD	.	.
*	*clefF4	*
4EE	(8dL	.
.	8c#	.
4FF#X	8d	.
.	8e-J)	.
=88	=88	=88
2GG)	4d'	.
.	(4D	.
(8BB-L	4En	.
8AA	.	.
8GG	4F#	.
8AAJ)	.	.
!!LO:LB:g=original
=89	=89	=89
!	!LO:TX:i:t=cresc.	!
(4BB-	2G)	<
4GG	.	.
4C	(8B-L	.
.	8A	.
4AA)	8G	.
.	8AJ)	.
=90	=90	=90
(4D/	(4Bn	.
4BBn)	4G)	.
*	*clefG2	*
4E- (4c	(8ggL	f
.	8ff#X	.
4C 4A)	8gg	.
.	8aa-J)	.
=91	=91	=91
*	*^	*
2Fn 2d	4gg'	2ryy	.
.	(>4g	.	.
(8GGL	4a	2d 2fn	.
8FF#X	.	.	.
8GG	4bn	.	.
8AA-J)	.	.	.
=92	=92	=92	=92
4GG'	2cc)	2c 2e-	.
4GGG`	.	.	.
4AAA`	(8ee-L	2fn	.
.	8dd	.	.
4BBBn`	8cc	.	.
.	8ddJ)	.	.
=93	=93	=93	=93
2CCz	(4ee-	2e-	.
.	4cc	.	.
8EE-L	4ffn	2fn	.
8DD	.	.	.
8CC	4dd	.	.
8DDJ	.	.	.
!!LO:LB:g=original
=94	=94	=94	=94
4EE-`	2gg	2g	.
4CC`	.	.	.
4FFn`	8bb-L	2a-	.
.	8aa-	.	.
4DD`	8gg	.	.
.	8aa-J	.	.
=95	=95	=95	=95
2GGz	4bb-	2b-	.
.	4gg	.	.
(8BB-L	4ccc	2cc	.
8AA-	.	.	.
8GG	4aa-	.	.
8AA-J)	.	.	.
=96	=96	=96	=96
4BB-`	2.ryy	4dd 4ddd	.
4GG`	.	4b- 4bb-	.
4C`	.	4ee- 4eee-	.
4AAn`	4ff#X	4ee-	.
=97	=97	=97	=97
2BB-	2gg	4ee-	sf >
.	.	2b-	.
2BBB-	2dd	.	.
.	.	4a-	]
=98	=98	=98	=98
12EE-L	4ee-)	4g	p
12D	.	.	.
12E-J	.	.	.
12FFnL	4r	2.ryy	.
12E-	.	.	.
12FnJ	.	.	.
12GGL>	[2ee-X [2eee-	.	.
12E-	.	.	.
12GJ	.	.	.
12EE-L	.	.	.
12D	.	.	.
12E-J	.	.	.
*	*v	*v	*
!!LO:LB:g=original
=99	=99	=99
12FFnL	4ee-] 4eee-]	.
12E-	.	.
12FnJ	.	.
12GGL>	4r	.
12E-	.	.
12GJ	.	.
12AA-L>	[2e-\ [2ee-\	sf
12E-	.	.
12A-J	.	.
12FFL	.	.
12E-	.	.
12FJ	.	.
=100	=100	=100
*	*^	*
12GGL	2ryy	4e-\] 4ee-\]	.
12E-	.	.	.
12GJ	.	.	.
12AA-L	.	4r	.
12E-	.	.	.
12A-J	.	.	.
12BB-L	4dd-\	[2e-/ [>/2ee-	sf
12E-	.	.	.
12B-J	.	.	.
12GGL	4bn\	.	.
12E-	.	.	.
12GJ	.	.	.
=101	=101	=101	=101
!	!LO:N:vis=2.	!	!
12AA-L	1e-X] 1ee-X_	4cc	>
12E-	.	.	.
12A-J	.	.	.
12GGL	.	4b-	.
12E-	.	.	.
12GJ	.	.	.
12FFnL<	.	4a-	.
12E-	.	.	.
12FnJ	.	.	.
12BB-L	.	4d\ 4a-\ 4dd\	]
12F	.	.	.
12B-J	.	.	.
*	*v	*v	*
=102	=102	=102
4EE- 4E-	4e-\ 4g\ 4ee-X\]	p
*clefG2	*	*
(4g 4b-	4r	.
.	(8cccq	.
4fn 4a-	(8bb-L)	.
.	8aan	.
4e- 4g	8bb-	.
.	8cccJ	.
!!LO:LB:g=original
=103	=103	=103
*^	*	*
4d 4fn)	4ryy	4bb-')	.
*clefF4	*clefF4	*	*
2B-	(4A-	(4d 4b-	.
.	4G	4e- 4cc	.
4B-	4Fn	4fn 4dd	.
=104	=104	=104	=104
4B-	4E-)	4g'/) 4ee-'/	.
*clefG2	*clefG2	*	*
(4e- 4g	2.ryy	4r	.
.	.	(8aa-q	.
4d 4fn	.	(8ggL)	.
.	.	8ff#X	.
4c 4e-	.	8gg	.
.	.	8aa-J	.
=105	=105	=105	=105
4Bn 4d)	4ryy	4gg')	.
*clefF4	*clefF4	*	*
2G	(4Fn	(4Bn 4g	.
.	4E-	4c 4an	.
4G	4D)	4d 4bn	.
*v	*v	*	*
=106	=106	=106
12CCL	4e-') 4cc'	f
12BBn	.	.
12CJ	.	.
12DDL	4r	.
12C	.	.
12DJ	.	.
12EE-L	[2cc [2ccc	sf
12C	.	.
12E-J	.	.
12CCL	.	.
12BB	.	.
12CJ	.	.
!!LO:LB:g=original
=107	=107	=107
12DDL	4cc] 4ccc]	.
12C	.	.
12DJ	.	.
12EEnL	4r	.
12C	.	.
12EnJ	.	.
12FFnL	[2c [2cc	sf
12C	.	.
12FnJ	.	.
12DDL	.	.
12C	.	.
12DJ	.	.
=108	=108	=108
*	*^	*
12EEL	2ryy	4c] 4cc]	.
12C	.	.	.
12EJ	.	.	.
12FFnL	.	4r	.
12C	.	.	.
12FnJ	.	.	.
12GGL	[<2c [2cc	4b-	sf
12C	.	.	.
12GJ	.	.	.
12EEL	.	4g	.
12C	.	.	.
12EJ	.	.	.
=109	=109	=109	=109
!	!LO:N:vis=2.	!	!
12FFnL	1c] 1cc_	4a-)	.
12C	.	.	.
12FnJ	.	.	.
12EE-L	.	4g	.
12C	.	.	.
12E-J	.	.	.
12DDL	.	4fn	.
12C	.	.	.
12DJ	.	.	.
12GGL	.	4Bn/ 4f/ 4bn/	.
12D	.	.	.
12GJ	.	.	.
*	*v	*v	*
=110	=110	=110
4CC 4C	4c 4e- 4cc]	.
*clefG2	*	*
(4e- 4g	4r	.
.	(8aa-q	.
4d 4fn	(8ggL)	.
.	8ff#X	.
4c 4e-	8gg	.
.	8aa-J	.
!!LO:LB:g=original
=111	=111	=111
*^	*	*
4B 4d)	4ryy	4gg')	.
*clefF4	*clefF4	*	*
2G	(4Fn	(4Bn 4g	.
.	4E-	4c 4a	.
4G	4D	4d 4b	.
=112	=112	=112	=112
4G	4C)	4e-) 4cc	.
2.ryy	(4A- 4c	4r	.
.	.	(8dd-q	.
.	4G 4B-	()8ccL	.
.	.	8bn	.
.	4Fn 4A-	8cc	.
.	.	8dd-J	.
=113	=113	=113	=113
4ryy	4En 4G)	4cc')	.
2C	(4BB-	4een (4ccc	.
.	4AA-	4ffn 4ddd	.
4C	4GG)	4gg 4eeen	.
*v	*v	*	*
=114	=114	=114
*tuplet	*	*
12FFnL<	4aa- 4fffn)	f
12E	.	.
12FnJ	.	.
12GGL	4r	.
12F	.	.
12GJ	.	.
12AA-L	[2ffn [2fffn	sf
12F	.	.
12A-J	.	.
12FFL<	.	.
12E	.	.
12FJ	.	.
*Xtuplet	*	*
=115	=115	=115
12GGL	4ff] 4fff]	.
12Fn	.	.
12GJ	.	.
12AAnL	4r	.
12F	.	.
12AnJ	.	.
12BB-L	[2fn [2ffn	sf
12F	.	.
12B-J	.	.
12GGL	.	.
12F	.	.
12GJ	.	.
!!LO:LB:g=original
=116	=116	=116
*	*^	*
12AAL	2ryy	4f] 4ff]	.
12Fn	.	.	.
12AJ	.	.	.
12BB-L	.	4r	.
12F	.	.	.
12B-J	.	.	.
12CL	[2ffn	(2ee-	sf
12F	.	.	.
12cJ	.	.	.
12AAL	.	.	.
12F	.	.	.
12AJ	.	.	.
=117	=117	=117	=117
(<8BB-L	4ff]	4dd-)	.
8B-	.	.	.
8D-	4r	2.ryy	.
8d-J	.	.	.
.	(8eee-q	.	.
8FnL	(>8ddd-L>)	.	.
8fn>	8ccc	.	.
8B-X	8ddd-	.	.
8b->J)	8eee-J)	.	.
=118	=118	=118	=118
(<8GL	4ddd-'>/	2ryy	.
8g>	.	.	.
8E-	4rccc	.	.
8e->J	.	.	.
8BB-L	[2ee-	(2dd-	sf
8B-	.	.	.
8GG	.	.	.
8GJ)	.	.	.
=119	=119	=119	=119
(<8AA-L	4ee-X]	4cc)	.
8A-	.	.	.
8C	4r	4r	.
8cJ	.	.	.
.	(8dddnq	.	.
8E-L	(>8cccL>)	2ryy	.
8e->	8bbn	.	.
8A-	8ccc	.	.
8a->J)	8dddnJ)	.	.
!!LO:LB:g=original
=120	=120	=120	=120
(<8F#XL	4ccc'>/	2ryy	.
8f#>X	.	.	.
8D	4rccc	.	.
8dJ	.	.	.
8AAnL<	[2ddn	(2cc	sf
8An	.	.	.
8FF#X	.	.	.
8F#J)	.	.	.
=121	=121	=121	=121
12GGL	4dd]	4b-)	.
12F#	.	.	.
12GJ	.	.	.
12AAL	4r	4r	.
12G	.	.	.
12AJ	.	.	.
12BB-L	2ryy	[2g [2gg	sf
12G	.	.	.
12B-J	.	.	.
12GGL	.	.	.
12F#	.	.	.
12GJ	.	.	.
*	*v	*v	*
=122	=122	=122
12AAL	4g] 4gg]	.
12G	.	.
12AJ	.	.
12BBnL	4r	.
12G	.	.
12BnJ	.	.
12CL	[2g [2gg	sf
12G	.	.
12cJ	.	.
12AAL	.	.
12G	.	.
12AJ	.	.
=123	=123	=123
*	*^	*
12BBL	2ryy	4g] 4gg]	.
12G	.	.	.
12BJ	.	.	.
12CL	.	4r	.
12G	.	.	.
12cJ	.	.	.
12DL	(<[<2g [2gg	4ffn	sf
12G	.	.	.
12dJ	.	.	.
12BBL	.	4dd	.
12G	.	.	.
12BJ	.	.	.
!!LO:LB:g=original
=124	=124	=124	=124
12CL	<2.g] 2.gg]	4ee-	>
!	!LO:TX:i:t=decresc.	!	!
12G	.	.	.
12cJ	.	.	.
12BBL	.	4dd	.
12G	.	.	.
12BJ	.	.	.
12CL	.	4ee-	.
12G	.	.	.
12cJ	.	.	.
12C#L	4g/ 4b-/ 4een/ 4gg/	4ryy	.
12G	.	.	.
12c#J	.	.	.
=125	=125	=125	=125
12DL	2ryy	4f#X/ 4a/ 4dd/ 4ff#X/)	p
12c#	.	.	.
12dJ	.	.	.
12CnL	.	4r	.
12D	.	.	.
12cnJ	.	.	.
12BB-L	[2ddd	4ddd	f >
12D	.	.	.
12B-J	.	.	.
12AAL	.	4ccc	] p
12D	.	.	.
12AJ	.	.	.
=126	=126	=126	=126
12GGL	(2.ddd]	4bb-	.
12D	.	.	.
12GJ	.	.	.
12FF#XL	.	4aa	.
12D	.	.	.
12F#XJ	.	.	.
12GGL	.	4bb-	.
12D	.	.	.
12GJ	.	.	.
12EE-L	4ccc#	4gg	.
12D	.	.	.
12E-J	.	.	.
=127	=127	=127	=127
12DDL	4ddd)	4ff#	.
12C#	.	.	.
12DJ	.	.	.
12CnL	4r	4r	.
12D	.	.	.
12cnJ	.	.	.
12BB-L	(<[2dd	4dd	fp
12D	.	.	.
12B-J	.	.	.
12AAL	.	4ccn	.
12D	.	.	.
12AJ	.	.	.
!!LO:LB:g=original
=128	=128	=128	=128
12GGL	2.dd]	4b-	.
12D	.	.	.
12GJ	.	.	.
12FF#L	.	4a	.
12D	.	.	.
12F#J	.	.	.
12GGL	.	4b-	.
12D	.	.	.
12GJ	.	.	.
12EE-L	4gg	4g 4cc#	.
12D	.	.	.
12E-J	.	.	.
=129	=129	=129	=129
12DD 12DL	4ff#	4f#) 4dd	fp
12d	.	.	.
12DJ	.	.	.
12dL	4r	4r	.
12D	.	.	.
12dJ	.	.	.
12DL	2r	2r	.
12d	.	.	.
12DJ	.	.	.
12dL	.	.	.
12D	.	.	.
12dJ	.	.	.
*	*v	*v	*
=130	=130	=130
!	!LO:TX:i:t=dimin.	!
12DL	1r	.
12d	.	.
12DJ	.	.
12dL	.	.
12D	.	.
12dJ	.	.
12DL	.	.
12d	.	.
12DJ	.	.
12dL	.	.
12D	.	.
12dJ	.	.
=131	=131	=131
12DL	1r	.
12d	.	.
12DJ	.	.
12dL	.	.
12D	.	.
12dJ	.	.
12DL	.	.
12d	.	.
12DJ	.	.
12dL	.	.
12D	.	.
12dJ	.	.
!!LO:LB:g=original
=132	=132	=132
12DL	2r	.
12d	.	.
12DJ	.	.
12dL	.	.
12D	.	.
12dJ	.	.
12BB'L	8dd (8dddL	p
12d	.	.
.	8cc# 8ccc#	.
12DJ	.	.
12dL	8dd 8ddd	.
12D	.	.
.	8ee 8eeeJ	.
12dJ	.	.
=133	=133	=133
12C'L	4dd 4ddd)	.
12e	.	.
12DJ	.	.
12dL	4d\ (4dd\	.
12D	.	.
12dJ	.	.
12AA'L	4e\ 4ee\	.
12d	.	.
12DJ	.	.
12dL	4f# 4ff#	.
12D	.	.
12dJ	.	.
=134	=134	=134
12BB'L	2g 2gg)	.
12d	.	.
12DJ	.	.
12dL	.	.
12D	.	.
12dJ	.	.
12FF#'L	8b (8bbL	.
12d	.	.
.	8a 8aa	.
12DJ	.	.
12dL	8g 8gg	.
12D	.	.
.	8a 8aaJ)	.
12dJ	.	.
=135	=135	=135
12GG'L	4b (4bb	.
12d	.	.
12DJ	.	.
12dL	4g 4gg	.
12D	.	.
12dJ	.	.
12EE'L	4cc# 4ccc#	.
12d	.	.
12DJ	.	.
12dL	4a 4aa)	.
12D	.	.
12dJ	.	.
!!LO:LB:g=original
=136	=136	=136
12DD'L	2dd 2ddd	.
12d	.	.
12DJ	.	.
12dL	.	.
12D	.	.
12dJ	.	.
12BB'L	8dd (8dddL	.
12d	.	.
.	8cc# 8ccc#	.
12DJ	.	.
12dL	8dd 8ddd	.
12D	.	.
.	8ee 8eeeJ	.
12dJ	.	.
=137	=137	=137
12C'L	4dd 4ddd)	.
12d	.	.
12DJ	.	.
12dL	4d\ (4dd\	.
12D	.	.
12dJ	.	.
12AA'L	4e\ 4ee\	.
12d	.	.
12DJ	.	.
12dL	4f# 4ff#	.
12D	.	.
12dJ	.	.
=138	=138	=138
12BB'L	2g 2gg)	.
12d	.	.
12DJ	.	.
12dL	.	.
12D	.	.
12dJ	.	.
12FF#'L	8b (8bbL	.
12d	.	.
.	8a 8aa	.
12DJ	.	.
12dL	8g 8gg	.
12D	.	.
.	8a 8aaJ)	.
12dJ	.	.
=139	=139	=139
12GG'L	4b (4bb	.
12d	.	.
12DJ	.	.
12dL	4g 4gg	.
12D	.	.
12dJ	.	.
12DD'L	4cc#y 4ccc#y	.
12d	.	.
12DJ	.	.
12dL	4a 4aa	.
12D	.	.
12dJ	.	.
!!LO:LB:g=original
=140	=140	=140
*^	*	*
4ryy	4GG	4g 4gg)	.
2G	([2.G	4r	sf
!	!	!LO:TX:i:t=cresc.	!
.	.	12gL	<
.	.	12b	.
.	.	12ggJ	.
4A	.	12gL	.
.	.	12cc	.
.	.	12ff#J	.
=141	=141	=141	=141
4B	1G_	12gL	.
.	.	12dd	.
.	.	12ffnJ	.
4c	.	12gL	.
.	.	12cc	.
.	.	12eeJ	.
4e-	.	12gL	f
.	.	12cc	.
.	.	12ee-J	>
4f#X	.	12aL	.
.	.	12cc	.
.	.	12ee-J	.
=142	=142	=142	=142
*	*	*^	*
4g	4G]	2ryy	12ccL	.
.	.	.	12ee-	.
.	.	.	12ccJ	]
2.ryy	4G)	.	12bL	.
.	.	.	12dd	.
.	.	.	12bJ	.
.	(>4d	8eenL	2f# 2a	p
.	.	8dd	.	.
.	4D	8cc#	.	.
.	.	8ddJ	.	.
*v	*v	*	*	*
=143	=143	=143	=143
4G	(4b	4d 4g	.
4GG	4dd)	4r	.
4D	(8eeL	2f# 2a	.
.	8dd	.	.
4DD	8cc#	.	.
.	8ddJ)	.	.
*	*v	*v	*
!!LO:LB:g=original
=144	=144	=144
*^	*	*
4ryy	4GG)	4d 4g 4b	.
2G	([2.G	4r	sf
!	!	!LO:TX:i:t=cresc.	!
.	.	12bL	<
.	.	12aa	.
.	.	12ggJ	.
4A	.	12ccL	.
.	.	12gg	.
.	.	12ff#J	.
=145	=145	=145	=145
4B	1G_	12ddL	.
.	.	12gg	.
.	.	12ffnJ	.
4c	.	12gL	.
.	.	12ff	.
.	.	12eeJ	f
4e-	.	12ccL	.
.	.	12ff	.
.	.	12ee-J	>
4f#X	.	12ccL	.
.	.	12ff	.
.	.	12ee-J	.
=146	=146	=146	=146
*	*	*^	*
4g	4G]	2ryy	12ccL	.
.	.	.	12ffn	]
.	.	.	12ee-J	.
2.ryy	4G)	.	12bL	.
.	.	.	12ee-	.
.	.	.	12ddJ	p
.	(4d	(8eenL	2f#X 2a	.
.	.	8dd	.	.
.	4D	8cc#	.	.
.	.	8ddJ)	.	.
*v	*v	*	*	*
=147	=147	=147	=147
4G	(4b	4d 4g	.
4GG	4dd)	4r	.
4D	8eeL	2f# 2a	.
.	8dd	.	.
4DD)	8cc#	.	.
.	8ddJ	.	.
!!LO:LB:g=original
=148	=148	=148	=148
(4GG	4g 4b	4d	.
4GGG)	4r	4r	.
(8Eq	.	.	.
(8DL)	2r	2r	f
8C#	.	.	.
8D	.	.	.
8EJ	.	.	.
*	*v	*v	*
=149	=149	=149
*^	*	*
4D')	4ryy	12r	.
.	.	12bbL	.
.	.	12cccJ	.
(4DD	[2.DD	12dddL	.
.	.	12ccc	.
.	.	12bbJ	.
4EE	.	12cccL	.
.	.	12aa	.
.	.	12bbJ	.
4FF#	.	12cccL	.
.	.	12bb	.
.	.	12aaJ	.
=150	=150	=150	=150
2GG	1DD_	12bbL	.
.	.	12gg	.
.	.	12aaJ	.
.	.	12bbL	.
.	.	12aa	.
.	.	12ggJ	.
8BBL	.	12ff#L	.
.	.	12ee	.
8AA	.	.	.
.	.	12ddJ	.
8GG	.	12ccL	.
.	.	12b	.
8AAJ	.	.	.
.	.	12aJ	.
=151	=151	=151	=151
4BB	2DD]	12gL	.
.	.	12dd	.
.	.	12cc#J	.
4GG	.	12ddL	.
.	.	12b	.
.	.	12aJ	.
4C#	2ryy	12gL	.
.	.	12ee	.
.	.	12dd#J	.
4AA	.	12eeL	.
.	.	12cc#	.
.	.	12gJ	.
*v	*v	*	*
!!LO:LB:g=original
=152	=152	=152
2DD 2D)	12f#L>	.
.	12ddn	.
.	12cc#J	.
.	12ddL	.
.	12a	.
.	12f#J	.
(8Eq	.	.
(8DL)	4d	.
8C#	.	.
8D	4r	.
8EJ	.	.
=153	=153	=153
*^	*	*
4D')	4ryy	12r	.
.	.	12bbL	.
.	.	12cccJ	.
(4DD	[2.DD	12dddL	.
.	.	12ccc	.
.	.	12bbJ	.
4EE	.	12cccL	.
.	.	12aa	.
.	.	12bbJ	.
4FF#	.	12cccL	.
.	.	12bb	.
.	.	12aaJ	.
=154	=154	=154	=154
2GG	1DD_	12bbL	.
.	.	12gg	.
.	.	12aaJ	.
.	.	12bbL	.
.	.	12aa	.
.	.	12ggJ	.
8BBL	.	12ff#L	.
.	.	12ee	.
8AA	.	.	.
.	.	12ddJ	.
8GG	.	12ccL	.
.	.	12b	.
8AAJ	.	.	.
.	.	12aJ	.
=155	=155	=155	=155
4BB	2DD]	12gL	.
.	.	12f#	.
.	.	12gJ	.
4GG	.	12aL>	.
.	.	12b	.
.	.	12ccJ	.
4C	2DD	12ddL	.
.	.	12d	.
.	.	12c#J	.
4AA	.	12dL	.
.	.	12e	.
.	.	12f#J	.
!!LO:LB:g=original
=156	=156	=156	=156
2ryy	4GGG 4GG)	12gL	.
.	.	12gg	.
.	.	12gJ	.
.	4r	12ggL	.
.	.	12g	.
.	.	12ggJ	<
!	!	!LO:TX:i:t=cresc.	!
4G	(4G	12gL	.
.	.	12gg	.
.	.	12gJ	.
4A	4F#	12ggL	.
.	.	12g	.
.	.	12ggJ	.
=157	=157	=157	=157
4B	4Fn	12gL	.
.	.	12gg	.
.	.	12gJ	.
4c	4E	12ggL	.
.	.	12g	.
.	.	12ggJ	f
4c#`	4E-) 4B-	12gL	.
.	.	12gg	.
.	.	12gJ	.
4c#`	4E- 4B-	12ggL	.
.	.	12g	.
.	.	12ggJ	.
=158	=158	=158	=158
*	*	*^	*
(4c#	4E- 4B-	2ryy	12gL	>
.	.	.	12gg	.
.	.	.	12gJ	.
4d)	4D 4Bn	.	12ggL	.
.	.	.	12g	.
.	.	.	12ggJ	.
2ryy	12DDL	(8eeL	2f# 2a	] p
.	12D	.	.	.
.	.	8dd	.	.
.	12F#	.	.	.
.	12A	8cc#	.	.
.	12F#	.	.	.
.	.	8ddJ)	.	.
.	12DJ	.	.	.
*v	*v	*	*	*
=159	=159	=159	=159
12GGL	(4b	4d 4g	.
12D	.	.	.
12G	.	.	.
12B	4dd)	4r	.
12G	.	.	.
12DJ	.	.	.
12DDL	(8eeL	2f# 2a	.
12D	.	.	.
.	8dd	.	.
12F#	.	.	.
12A	8cc#	.	.
12F#	.	.	.
.	8ddJ)	.	.
12DJ	.	.	.
*	*v	*v	*
!!LO:LB:g=original
=160	=160	=160
4GG 4G	12d 12g 12bL	.
!	!LO:TX:i:t=cresc.	!
.	12gg	.
.	12gJ	<
4r	12ggL	.
.	12g	.
.	12ggJ	.
4GG\ (4G\	12gL	.
.	12gg	.
.	12gJ	.
4AA\ 4F#\	12ggL	.
.	12g	.
.	12ggJ	.
=161	=161	=161
4BB 4Fn	12gL	.
.	12gg	.
.	12gJ	.
4C 4E	12ggL	.
.	12g	.
.	12ggJ	.
4C 4E-)	12gL	f
.	12gg	.
.	12gJ	.
4C` 4E-`	12ggL	.
.	12g	.
.	12ggJ	.
=162	=162	=162
*^	*	*
4C (4E-	2ryy	12gL	>
.	.	12gg	.
.	.	12gJ	.
4BB 4D)	.	12ggL	.
.	.	12g	.
.	.	12ggJ	.
(8EnL	4DD	12f#L	] p
.	.	12a	.
8D	.	.	.
.	.	12dd	.
8C#	4r	12ff#	.
.	.	12dd	.
8DJ)	.	.	.
.	.	12aJ	.
=163	=163	=163	=163
(4BB	4GG	12gL	.
.	.	12b	.
.	.	12dd	.
4D)	4r	12gg	.
.	.	12dd	.
.	.	12bJ	.
(8EL	4DD	12f#L	.
.	.	12a	.
8D	.	.	.
.	.	12dd	.
8C#	4r	12ff#	.
.	.	12dd	.
8DJ)	.	.	.
.	.	12aJ	.
!!LO:LB:g=original
=164	=164	=164	=164
4BB	4GG	12gL	.
.	.	12b	.
.	.	12dd	.
4r	4r	12gg	.
.	.	12dd	.
.	.	12bJ	.
2ryy	12BBL	(8cccL	.
.	12F#	.	.
.	.	8bb	.
.	12B	.	.
.	12d#	8aa#	.
.	12B	.	.
.	.	8bbJ)	.
.	12F#J	.	.
*v	*v	*	*
=165	=165	=165
12EL	(4gg	.
12G	.	.
12B	.	.
12e	4bb)	.
12B	.	.
12GJ	.	.
12BBL	(8cccL	.
12F#	.	.
.	8bb	.
12B	.	.
12d#	8aa#	.
12B	.	.
.	8bbJ)	.
12F#J	.	.
=166	=166	=166
12EL	(4gg	.
12G	.	.
12B	.	.
12e	4bb)	.
12B	.	.
12GJ	.	.
(8AAL	12bL	.
.	12dd	.
8GG	.	.
.	12gg	.
8FF#	12bb	.
.	12gg	.
8GGJ)	.	.
.	12ddJ	.
=167	=167	=167
!	!LO:TX:i:t=cresc.	!
(4EE	12ccL	<
.	12ee	.
.	12gg	.
4GG)	12ccc	.
.	12gg	.
.	12eeJ	.
(8AAL	12bL	.
.	12dd	.
8GG	.	.
.	12gg	.
8FF#	12bb	.
.	12gg	.
8GGJ)	.	.
.	12ddJ	.
!!LO:LB:g=original
=168	=168	=168
(4EE	12ccL	.
.	12ee	.
.	12gg	.
4GG)	12ccc	.
.	12gg	.
.	12eeJ	.
12EEL	(8fffnL	p
12E	.	.
.	8eee	.
12G#	.	.
12B	8ddd#	.
12G#	.	.
.	8eeeJ)	.
12EJ	.	.
=169	=169	=169
12AAL	(4ccc	.
12E	.	.
12A	.	.
12c	4eee)	.
12A	.	.
12EJ	.	.
12EEL	(8fffnL	.
12E	.	.
.	8eee	.
12G#	.	.
12B	8ddd#	.
12G#	.	.
.	8eeeJ)	.
12EJ	.	.
=170	=170	=170
12AAL	(4ccc	.
12E	.	.
12A	.	.
12c	4eee)	.
12A	.	.
12EJ	.	.
!	!LO:TX:i:t=cresc.	!
12EEL	(8fffnL	<
12E	.	.
.	8eee	.
12G#	.	.
12B	8ddd#	.
12G#	.	.
.	8eeeJ)	.
12EJ	.	.
=171	=171	=171
12AAL	(8dddnL	.
12E	.	.
.	8ccc	.
12A	.	.
12c	8bb	.
12A	.	.
.	8cccJ	.
12EJ	.	.
12CL	8bbL	.
12E	.	.
.	8aa	.
12A	.	.
12c	8gg#	.
12A	.	.
.	8aaJ	.
12EJ	.	.
!!LO:LB:g=original
=172	=172	=172
12DL	8ggL	.
12A	.	.
.	8ff#	.
12c	.	.
12d	8ee#	.
12c	.	.
.	8ff#J)	.
12AJ	.	.
12FF#L	(8eeeL	.
12D	.	.
.	8ddd	.
12F#	.	.
12A	8ccc#	.
12F#	.	.
.	8dddJ	.
12DJ	.	.
=173	=173	=173
*	*^	*
12GGL	2ryy	8cccnL	.
12D	.	.	.
.	.	8bb	.
12G	.	.	.
12B	.	8aa#	.
12G	.	.	.
.	.	8bbJ)	.
12DJ	.	.	.
12AAL	(8bbL	4cc# 4ee	sf
12G	.	.	.
.	8aan	.	.
12A	.	.	.
12c#	8gg#	4cc# 4ee	.
12A	.	.	.
.	8aaJ)	.	.
12GJ	.	.	.
=174	=174	=174	=174
12DL	(8bbL	4dd 4ff#	.
12F#	.	.	.
.	8aa	.	.
12A	.	.	.
12d	8gg#	4r	.
12A	.	.	.
.	8aaJ)	.	.
12F#J	.	.	.
!	!LO:TX:i:t=cresc.	!	!
12FF#L	(8eeeL	2ryy	p <
12D	.	.	.
.	8ddd	.	.
12F#	.	.	.
12A	8ccc#	.	.
12F#	.	.	.
.	8dddJ)	.	.
12DJ	.	.	.
=175	=175	=175	=175
12GGL	2ryy	(8cccnL	.
12D	.	.	.
.	.	8bb	.
12G	.	.	.
12B	.	8aa#	.
12G	.	.	.
.	.	8bbJ)	.
12DJ	.	.	.
12AAL	8bbL	4cc# 4ee	sf
12G	.	.	.
.	8aan	.	.
12A	.	.	.
12c#	8gg#	4cc# 4ee	.
12A	.	.	.
.	8aaJ	.	.
12GJ	.	.	.
!!LO:LB:g=original
=176	=176	=176	=176
12DL	8bbL	4dd 4ff#	.
12F#	.	.	.
.	8aa	.	.
12A	.	.	.
12d	8gg#	4r	.
12A	.	.	.
.	8aaJ	.	.
12F#J	.	.	.
12AAL	8bbL	4cc# 4ee	sf
12G	.	.	.
.	8aa	.	.
12A	.	.	.
12c#	8gg#	4cc# 4ee	.
12A	.	.	.
.	8aaJ	.	.
12GJ	.	.	.
=177	=177	=177	=177
12DL	8bbL	4dd 4ff#	.
12F#	.	.	.
.	8aa	.	.
12A	.	.	.
12d	8gg#	4r	.
12A	.	.	.
.	8aaJ	.	.
12F#J	.	.	.
12AAL	8bbL	4cc# 4ee	sf
12G	.	.	.
.	8aa	.	.
12A	.	.	.
12c#	8gg#	4cc# 4ee	.
12A	.	.	.
.	8aaJ	.	.
12GJ	.	.	.
*	*v	*v	*
=178	=178	=178
(8F#q	.	.
*^	*	*
[1d)	4D	4dd	fp
.	4r	4r	.
.	4cn	12r	.
.	.	(12ddL	.
.	.	12eeJ	.
.	4A	12ff#L	.
.	.	12ee	.
.	.	12ddJ)	.
=179	=179	=179	=179
1d_	4B	12r	.
.	.	(12ggL	.
.	.	12aaJ	.
.	4G	12bbL	.
.	.	12aa	.
.	.	12ggJ)	.
.	4c	12r	.
.	.	(12ddL	.
.	.	12eeJ	.
.	4A	12ff#L	.
.	.	12ee	.
.	.	12ddJ)	.
!!LO:LB:g=original
=180	=180	=180	=180
1d_	4B	12r	.
.	.	(12ggL	.
.	.	12aaJ	.
.	4G	12bbL	.
.	.	12aa	.
.	.	12ggJ)	.
!	!	!LO:TX:i:t=cresc.	!
.	4c	12r	.
.	.	(12ddL	.
.	.	12eeJ	.
.	4A	12ff#L	.
.	.	12ee	.
.	.	12ddJ)	.
=181	=181	=181	=181
1d_	4B	12r	.
.	.	12ggL	.
.	.	12aaJ	.
.	4G	12bbL	.
.	.	12aa	.
.	.	12ggJ	.
.	4A	12cccL	.
.	.	12aa	.
.	.	12ff#J	.
.	4D	12ccL	.
.	.	12a	.
.	.	12f#J	.
=182	=182	=182	=182
2ryy	4G 4d]	12gL	.
.	.	12b	.
.	.	12gJ	.
.	4BB\	12dL	.
.	.	12B	.
.	.	12gJ	.
[2D	4C	12r	sf
.	.	12dL	.
.	.	12eJ	.
.	4AA	12f#L	.
.	.	12e	.
.	.	12dJ	.
=183	=183	=183	=183
1D_	4BB	12r	.
.	.	12gL	.
.	.	12aJ	.
.	4GG	12bL	.
.	.	12a	.
.	.	12gJ	.
.	4AA	12ccL	.
.	.	12a	.
.	.	12f#J	.
*	*	*clefF4	*
.	4DD	12cL	.
.	.	12A	.
.	.	12F#J	.
!!LO:LB:g=original
=184	=184	=184	=184
4D]	4GG	12GL	.
.	.	12B	.
.	.	12GJ	.
4ryy	4BBB\	12DL	.
.	.	12BB	.
.	.	12GJ	.
[2DD	4CC	12r	sf
.	.	12DL	.
.	.	12EJ	.
.	4AAA	12F#L	.
.	.	12E	.
.	.	12DJ	.
=185	=185	=185	=185
1DD_	4BBB	12r	.
.	.	12GL	.
.	.	12AJ	.
.	4GGG	12BL	.
.	.	12A	.
.	.	12GJ	.
.	4AAA	12cL	.
.	.	12A	.
.	.	12F#J	.
.	4CC	12CL	.
.	.	12AA	.
.	.	12FF#J	.
=186	=186	=186	=186
2DD]	4BBB	12GGL	.
.	.	12BB	.
.	.	12DJ	.
.	4GGG	12GL	.
.	.	12B	.
.	.	12dJ	.
[2DD	4AAA	12cL	sf
.	.	12A	.
.	.	12F#J	.
.	4CC	12CL	.
.	.	12AA	.
.	.	12FF#J	.
=187	=187	=187	=187
2DD]	4BBB	12GGL	.
.	.	12BB	.
.	.	12DJ	.
.	4GGG	12GL	.
.	.	12B	.
.	.	12dJ	.
[2DD	4AAA	12cL	sf
.	.	12A	.
.	.	12F#J	.
.	4CC	12CL	.
.	.	12AA	.
.	.	12FF#J	.
!!LO:LB:g=original
=188	=188	=188	=188
4DD]	4BBB	12GGL	.
.	.	12B	.
.	.	12GJ	.
4GGG' 4GG'	2.ryy	12DL	.
.	.	12BB	.
.	.	12BJ	.
!	!	!LO:TX:i:t=cresc.	!
4r	.	12DL	.
.	.	12d	<
.	.	12BJ	.
4GG' 4BB'	.	12GL	.
.	.	12D	.
.	.	12dJ	.
*v	*v	*	*
*	*clefG2	*
=189	=189	=189
4r	12GL	.
.	12g	.
.	12dJ	.
4GG' 4BB' 4D'	12BL	.
.	12G	.
.	12gJ	.
4r	12BL	.
.	12b	.
.	12gJ	.
4GG'\ 4BB'\ 4D'\ 4G'\	12dL	.
.	12dd	.
.	12bJ	.
=190	=190	=190
4r	12gL	f
.	12gg	.
.	12gJ	.
4BB` 4D` 4G`	12ggL	.
.	12g	.
.	12ggJ	.
4AA#` 4C#` 4G`	12gL	.
.	12gg	.
.	12gJ	.
4BB` 4D` 4G`	12ggL	.
.	12g	.
.	12ggJ	.
=191	=191	=191
4AA#` 4C#` 4G`	12gL	.
.	12gg	.
.	12gJ	.
4BB` 4D` 4G`	12ggL	.
.	12g	.
.	12ggJ	.
4AA#` 4C#` 4G`	12gL	.
.	12gg	.
.	12gJ	.
4BB` 4D` 4G`	12ggL	.
.	12g	.
.	12ggJ	.
!!LO:LB:g=original
=192	=192	=192
4AA#` 4C#` 4G`	12gL	.
.	12gg	.
.	12gJ	.
4BB` 4D` 4G`	12ggL	.
.	12g	.
.	12ggJ	.
[2Cn [2E [2G	12eeL	sf
.	12ff#	.
.	12ggJ	.
.	12ccL	.
.	12dd	.
.	12eeJ	.
=193	=193	=193
4C] 4E] 4G]	12aL	p
.	12b	.
.	12ccJ	.
4C' 4c'	12eL	.
.	12b	.
.	12aJ	.
4D' 4B'	12dL	.
.	12a	.
.	12gJ	.
4D' 4A'	12cL	.
.	12g	.
.	12f#J	.
=194	=194	=194
!	!LO:TX:i:t=cresc.	!
4r	12gL	<
.	12gg	.
.	12gJ	.
4BB` 4D` 4G`	12ggL	.
.	12g	.
.	12ggJ	.
4AA#' 4C#' 4G'	12gL	.
.	12gg	.
.	12gJ	.
4BB' 4D' 4G'	12ggL	.
.	12g	.
.	12ggJ	.
=195	=195	=195
4AA#` 4C#` 4G`	12gL	f
.	12gg	.
.	12gJ	.
4BB` 4D` 4G`	12ggL	.
.	12g	.
.	12ggJ	.
4AA#` 4C#` 4G`	12gL	.
.	12gg	.
.	12gJ	.
4BB` 4D` 4G`	12ggL	.
.	12g	.
.	12ggJ	.
!!LO:LB:g=original
=196	=196	=196
4AA#` 4C#` 4G`	12gL	.
.	12gg	.
.	12gJ	.
4BB` 4D` 4G`	12ggL	.
.	12g	.
.	12ggJ	.
[2Dz [2Fnz [2Bz	12gL	.
.	12gg	.
.	12gJ	.
.	12ggL	.
.	12g	.
.	12ggJ	.
=197	=197	=197
4D] 4F] 4B]	12gL	.
.	12gg	.
.	12gJ	.
4BB` 4D` 4G`	12ggL	.
.	12g	.
.	12ggJ	.
[2Ez [2Gz [2cz	12gL	.
.	12gg	.
.	12gJ	.
.	12ggL	.
.	12g	.
.	12ggJ	.
=198	=198	=198
4E] 4G] 4c]	12gL	.
.	12gg	.
.	12gJ	.
4C#` 4E` 4B-`	12ggL	.
.	12g	.
.	12ggJ	.
[2Ez [2B-z [2c#z	12gL	.
.	12gg	.
.	12gJ	.
.	12ggL	.
.	12g	.
.	12ggJ	.
!!LO:LB:g=original
=199	=199	=199
4E] 4B-] 4c#]	12gL	.
.	12gg	.
.	12gJ	.
2Ez 2B-z 2c#z	12ggL	.
.	12g	.
.	12ggJ	.
.	12gL	.
.	12gg	.
.	12gJ	.
4E 4B- 4c#	12ggL	.
.	12g	.
.	12ggJ	.
=200	=200	=200
12DL	12gL	.
12Bn	12gg	.
12dJ	12gJ	.
12EL	12ggL	.
12B-	12g	.
12c#J	12ggJ	.
12DL	12gL	.
12Bn	12gg	.
12dJ	12gJ	.
12C#L	12ggL	.
12B-	12g	.
12eJ	12ggJ	.
=201	=201	=201
12DL	12gL	.
12Bn	12gg	.
12dJ	12gJ	.
(4EEz	(12ggL	.
.	12cc#	.
.	12b-J	.
4DD	12ggL	.
.	12dd	.
.	12bnJ	.
4CC#	12ggL	.
.	12ee	.
.	12b-J	.
!!LO:LB:g=original
=202	=202	=202
4DD)	12ggL	.
.	12dd	.
.	12bnJ)	.
12EL	12ggL	p
12B-	12g	.
12c#J	12ggJ	.
12DL	12gL	.
12Bn	12gg	.
12dJ	12gJ	.
12C#L	12ggL	.
12B-	12g	.
12eJ	12ggJ	.
=203	=203	=203
12DL	12gL	.
12B	12gg	.
12dJ	12gJ	.
(>4EEz	12ggL	.
.	12cc#	.
.	12b-J	.
4DD	12ggL	.
.	12dd	.
.	12bnJ	.
4CC#	12ggL	.
.	12ee	.
.	12b-J	.
=204	=204	=204
4DD	12ggL	.
.	12dd	.
.	12bnJ	.
4EEz	12ggL	.
.	12cc#	.
.	12b-J	.
4DD	12ggL	.
.	12dd	.
.	12bnJ	.
4CC#	12ggL	.
.	12ee	.
.	12b-J	.
!!LO:LB:g=original
=205	=205	=205
4DD	12ggL	.
.	12dd	.
.	12bnJ	.
4CC#z	12ggL	.
.	12ee	.
.	12b-J	.
4DD	12ggL	.
.	12dd	.
.	12bnJ	.
4CC#)	12ggL	.
.	12ee	.
.	12b-J	.
=206	=206	=206
[1DD [1D	4bn 4dd 4gg	fp
.	4r	.
.	(>4g	.
.	4f#	.
=207	=207	=207
*	*^	*
1DD_ 1D_	4fn	4r	.
.	4e)	8r	.
.	.	8G	.
.	4e-'	4c	.
.	4e-'	4c	.
=208	=208	=208	=208
*^	*	*	*
2ryy	1DD_ 1D_	(4e-	4c	.
.	.	4d)	8BL\	.
.	.	.	8E<J/	.
4A'<	.	(4c#	2ryy	.
4A'<	.	4cn	.	.
*	*	*v	*v	*
!!LO:LB:g=original
=209	=209	=209	=209
(4A	1DD] 1D]	4B)	.
8G)	.	4r	.
8rA	.	.	.
!LO:TX:i:a:t=m.d.	!	!	!
(4G	.	2r	.
4F#	.	.	.
=210	=210	=210	=210
4Fn	[1DD	4r	.
4En)	.	8r	.
.	.	8g	.
4E-'	.	4cc'	.
4E-'	.	4cc'	.
=211	=211	=211	=211
(4E-	1DD_	(4cc	.
4D)	.	8bL)	.
.	.	8enJ	.
4C#'	.	4a'	.
4Cn'	.	4a'	.
=212	=212	=212	=212
(4C	1DD_	(4a'	.
4BB)	.	8g)	.
.	.	8r	.
!	!	!LO:TX:i:t=cresc.	!
(4BB-	.	4dd (4ddd	<
4AA	.	4cc# 4ccc#	.
=213	=213	=213	=213
4AA-	4.DD]	4ccn 4cccn	.
8GGL)	.	4b 4bb)	.
8DJ	8DD	.	.
2ryy	4GG'\ 4G'\	4b-' 4bb-'	.
.	4G'	4b-' 4bb-'	.
*v	*v	*	*
=214	=214	=214
4G (4c#	4b- (4bb-	.
8F# 8dL)	8a 8aaL)	.
8BBJ	8d 8ddJ	.
4E'	4g' 4gg'	.
4E'	4g' 4gg'	.
!!LO:LB:g=original
=215	=215	=215
4E (4A#	4g (4gg	sf
8D 8BL<)	8f# 8ff#L)	.
8GGJ	8b 8bbJ	.
4Cn'	4ee' 4eee'	.
4CC' 4C'	4ee' 4eee'	.
=216	=216	=216
(4FF# 4C	4ee (4eee	sf
8GG) 8BBL	8dd 8dddL)	.
8EE'J	8g' 8gg'J	.
4AA'	4cc' 4ccc'	.
4FF#' 4AA'	4cc' 4ccc'	.
=217	=217	=217
12DDL	4..cc 4..ccc	fp
12AA	.	.
12DJ	.	.
12F#L	.	.
12D	.	.
12AAJ	.	.
.	16d	.
12DDL	4cc'	.
12AA	.	.
12DJ	.	.
12F#L	4cc'	.
12D	.	.
12AAJ	.	.
=218	=218	=218
*	*^	*
12DDL	4r	[1cc	.
12AA	.	.	.
12DJ	.	.	.
12F#L	8raa	.	.
12D	.	.	.
.	16raa	.	.
12AAJ	.	.	.
.	16dd	.	.
12DDL	4ccc'	.	.
12AA	.	.	.
12DJ	.	.	.
12F#L	4ccc'	.	.
12D	.	.	.
12AAJ	.	.	.
!!LO:LB:g=original
=219	=219	=219	=219
12DDL	4..ccc	4..cc]	.
12AA	.	.	.
12DJ	.	.	.
12F#L	.	.	.
12D	.	.	.
12AAJ	.	.	.
.	16ryy	16d	.
12DDL	2ryy	4cc'	.
12AA	.	.	.
12DJ	.	.	.
12F#L	.	4cc'	.
12D	.	.	.
12AAJ	.	.	.
=220	=220	=220	=220
12DDL	4r	[1cc	.
12AA	.	.	.
12DJ	.	.	.
12F#L	8raa	.	.
12D	.	.	.
.	16raa	.	.
12AAJ	.	.	.
.	16dd	.	.
12DDL	4ccc'	.	.
12AA	.	.	.
12DJ	.	.	.
12F#L	4ccc'	.	.
12D	.	.	.
12AAJ	.	.	.
=221	=221	=221	=221
4DD	4..ccc	4..cc]	.
4r	.	.	.
.	16ryy	16d	.
2r	2ryy	4cc'	.
.	.	4cc'	.
*	*v	*v	*
=222	=222	=222
1r	4..cc	.
!	!LO:TX:i:t=cresc.	!
.	16d	<
.	4cc#'	.
.	4cc#'	.
!!LO:LB:g=original
=223	=223	=223
1r	[1cc#	.
=224	=224	=224
1r	2cc#;]	.
.	(8eeq	.
.	()8ddL	p
.	8cc#	.
.	8dd	.
.	8eeJ	.
=225	=225	=225
*^	*	*
4r	4r	4dd)	.
4D	(4C'	(4F#' 4d'	.
4D	4BB'	4G' 4e'	.
4D	4AA')	4A') 4f#'	.
*v	*v	*	*
=226	=226	=226
2GG 2D	2B 2g	.
2r	2r	.
=227	=227	=227
!!!OMD: Adagio
*	*^	*
2r	2r	2.ryy	.
4r	(>8bL	.	p
.	8a	.	.
4FF# 4D	8g#	4cn	.
.	8aJ)	.	.
*	*v	*v	*
=228	=228	=228
(4GG' 4D'	(4B' 4b'	.
4GG' 4D'	4B' 4gn'	.
4FF#' 4D'	4c#' 4g' 4cc#'	.
4EE') 4D'	4c#') 4g' 4a'	.
!!LO:LB:g=original
=229	=229	=229
2DD: 2D:	2d: 2f#: 2a: 2dd:	.
2r	2r	.
=230	=230	=230
!!!OMD: Tempo 1<sup>0</sup>
1r	2r	.
.	(8eeq	.
.	(8ddL)	p
.	8cc#	.
.	8dd	.
.	8eeJ	.
=231	=231	=231
!	!LO:TX:i:t=cresc.	!
4r	4dd)	<
(4DD' 4D'	(4F#' 4cn' 4d'	.
4DD' 4D'	4G' 4c' 4e'	.
4DD') 4D'	4A') 4c' 4f#'	.
=232	=232	=232
2EE 2E	2G 2B 2g	.
2r	2r	.
=233	=233	=233
!!!OMD: Adagio
*	*^	*
2r	2r	2.ryy	.
4r	(>8bL	.	p
.	8a	.	.
4F#' (4c'	8g#	4d	.
.	8aJ)	.	.
*	*v	*v	*
=234	=234	=234
4G' 4B'	(4d' 4b'	.
4E' 4B')	4e' 4gn')	.
2C 2A	2e 2a 2cc	.
!!LO:LB:g=original
=235	=235	=235
!	!LO:TX:i:t=cresc.	!
1DD 1D	2r	.
.	2d 2f# 2a	<
=236	=236	=236
1BB: 1D: 1G: 1B:	1d: 1g: 1dd:	sf
=237	=237	=237
!!!OMD: Tempo I<sup>0</sup>
*	*^	*
2r	2r	2.ryy	.
4r	(>8bL	.	p
.	8a	.	.
4F#' (4c'	8g#	4d	.
.	8aJ)	.	.
*	*v	*v	*
=238	=238	=238
4G' 4B'	4d' 4b'	.
4E' 4B')	4e' 4gn'	.
2C 2A	2e 2a 2cc	.
=239	=239	=239
(2.DD	2r	pp
.	2d 2f# 2a	fp
8EEL	.	.
8FF#J	.	.
=240	=240	=240
4GG	1r	.
4AA	.	.
4BB	.	.
8CL	.	.
8BBJ)	.	.
!!LO:LB:g=original
=241	=241	=241
!	!LO:TX:i:t=cresc.	!
[1DDTT [1AA	1r	.
=242	=242	=242
1DD_TTT 1AA_	1r	.
=243	=243	=243
1DD_TTT 1AA_	2r	.
!!!OMD: Presto
.	(8eeeL	f
.	8ddd	.
.	8ccc#	.
.	8dddJ)	.
=244	=244	=244
*	*^	*
1DD_TTT 1AA_	(8eeL	4f#	.
.	8dd	.	.
.	8cc#	4r	.
.	8ddJ)	.	.
.	(8eeeL	2r	.
.	8ddd	.	.
.	8ccc#	.	.
.	8dddJ)	.	.
=245	=245	=245	=245
1DD_ 1AA_	(8eeL	4f#	.
.	8dd	.	.
.	8cc#	4r	.
.	8ddJ)	.	.
.	(8eeeL	2r	.
.	8ddd	.	.
.	8ccc#	.	.
.	8dddJ)	.	.
=246	=246	=246	=246
1DD_ 1AA_	(8eeL	4f#	.
.	8dd	.	.
.	8cc#	4ryy	.
.	8ddJ)	.	.
.	(8eeL	4f#	.
.	8dd	.	.
.	8cc#	4r	.
.	8ddJ)	.	.
!!LO:LB:g=original
=247	=247	=247	=247
1DD] 1AA]	(8eeL	4f#	.
.	8dd	.	.
.	8cc#	4r	.
.	8ddJ)	.	.
.	(8eeL	4f#	.
.	8dd	.	.
.	8cc#	4r	.
.	8ddJ)	.	.
(16GGqLL	.	.	.
16AAqJJ	.	.	.
=248	=248	=248	=248
4GGG 4GG)	4b	4g	.
4r	2.ryy	4r	.
*	*clefF4	*clefF4	*
(8FnL	.	4r	p
8E-	.	.	.
8D	.	4G (<(4c#	.
8E-J	.	.	.
*	*v	*v	*
=249	=249	=249
4D)	4F#X) 4d)	.
4r	4r	.
*clefG2	*clefG2	*
4r	(8eenL	.
.	8dd	.
(>(4d 4f#	8cc#	.
.	8ddJ	.
=250	=250	=250
4G 4g))	4b)	.
4r	4r	.
*clefF4	*clefF4	*
(8FnL	4r	.
8E-	.	.
8D	4G ((<4c#	.
8E-J	.	.
=251	=251	=251
4D)	4F#X 4d))	.
4r	4r	.
*clefG2	*clefG2	*
4r	(8eeenL	.
.	8ddd	.
(<(4dd\ 4ff#\	8ccc#	.
.	8dddJ	.
!!LO:LB:g=original
=252	=252	=252
4g 4gg))	4bb)	.
4r	4r	.
*clefF4	*	*
(>8FnL	4r	.
8E-	.	.
8D	4G' 4c#'	.
8E-J	.	.
=253	=253	=253
!	!LO:TX:i:t=cresc.	!
8FnL	4r	.
8E-	.	.
8D	4c#' 4g'	<
8E-J	.	.
8FL	4r	.
8E-	.	.
8D	4g'\ 4cc#'\	.
8E-J	.	.
=254	=254	=254
8FnL	4r	.
8E-	.	.
8D	4cc#' 4gg'	.
8E-J	.	.
8FL	4r	.
8E-	.	.
8D	4gg' 4ccc#'	.
8E-J	.	.
=255	=255	=255
8FnL	4r	.
8E-	.	.
8D	4gg' 4ccc#'	.
8E-J	.	.
8FL	4r	.
8E-	.	.
8D	4gg' 4ccc#'	.
8E-J	.	.
=256	=256	=256
4DD 4D)	(8ff# 8eeenL	f)
.	8ddd	.
2F#X	8ccc#	.
.	8dddJ	.
.	8eeeL	.
.	8ddd	.
[4A	8ccc#	.
.	8dddJ	.
!!LO:LB:g=original
=257	=257	=257
4A]	8eeeL	.
.	8ddd	.
2cn	8ccc#	.
.	8dddJ	.
.	8eeeL	.
.	8ddd	.
*clefG2	*	*
[4f#	8ccc#	.
.	8dddJ	.
=258	=258	=258
4f#]	8eeeL	.
.	8ddd	.
4a'	8ccc#	.
.	8dddJ	.
4ccn'	8eeeL	.
.	8ddd	.
4ff#'	8ccc#	.
.	8dddJ	.
=259	=259	=259
4aa'	8eeeL	.
.	8ddd	.
4bb'	8ccc#	.
.	8dddJ	.
4cccn'	8eeeL	.
.	8ddd	.
4ff#'	8ccc#	.
.	8dddJ	.
=260	=260	=260
4gg'	4bb)	p
4g'	4r	.
4r	(8eeL	.
.	8dd	.
4d'	8cc#	.
.	8ddJ)	.
*clefF4	*	*
=261	=261	=261
4r	4b'	.
4G'	4r	.
4r	(8eL	.
.	8d	.
4D'	8c#	.
.	8dJ	.
!!LO:LB:g=original
=262	=262	=262
4r	4B')	.
4GG'	4r	.
(8EEL	2r	pp
8DD	.	.
8CC#	.	.
8DDJ	.	.
=263	=263	=263
8EEL	1r	.
8DD	.	.
8CC#	.	.
8DDJ	.	.
8EEL	.	.
8DD	.	.
8CC#	.	.
8DDJ	.	.
=264	=264	=264
!	!LO:TX:i:t=cresc.	!
8EEL	1r	.
8DD	.	.
8CC#	.	.
8DDJ	.	.
8EEL	.	.
8DD	.	.
8CC#	.	.
8DDJ	.	.
=265	=265	=265
8EEL	1r	.
8DD	.	.
8CC#	.	.
8DDJ	.	.
8EEL	.	.
8DD	.	.
8CC#	.	.
8DDJ	.	.
=266	=266	=266
8EEL	2r	.
8DD	.	.
8CC#	.	.
8DDJ)	.	.
2r	4ccn` 4ff#` 4aa` 4cccn`	ff
.	4cc` 4ff#` 4aa` 4ccc`	.
!!LO:LB:g=original
=267	=267	=267
(8EEL	2r	ff
8DD	.	.
8CC#	.	.
8DDJ)	.	.
2r	4f#` 4ccn` 4ff#`	.
.	4f#` 4cc` 4ff#`	.
=268	=268	=268
4GGG` 4GG`	2r	f
4GGG` 4GG`	.	.
2r	4g` 4b` 4dd` 4gg`	ff
.	4g 4b 4dd 4gg	.
=269	=269	=269
1r	1r	.
=270	=270	=270
4GGG` 4GG`	2r	f
4GGG` 4GG`	.	.
2r	4d` 4g` 4b` 4dd`	ff
.	4d` 4g` 4b` 4dd`	.
=271	=271	=271
1r	1r	.
=272	=272	=272
4GGG' 4GG'	2r	p
4r	.	.
2r	4B' 4d' 4g' 4b'	p
.	4r	.
*	*clefF4	*
=273	=273	=273
4GGG' 4GG'	2r	pp
4r	.	.
2r	4D' 4G' 4B' 4d'	pp
.	4r	.
=274	=274	=274
4GGG' 4GG'	2r	.
4r	.	.
4GGG' 4GG'	4BB' 4D' 4G' 4B'	.
4r	4r	.
=275	=275	=275
1r;	1r;	.
==	==	==
*-	*-	*-
!!!RDF**kern: > = above
!!!RDF**kern: < = below
!!!verovio: beamFrenchStyle
!!!LOR: Durand 1915, plates 9327/9328, Paul Dukas, ed.
!!!PED: Dukas, Paul
!!!URL-vhv: https://verovio.humdrum.org/?file=beethoven/sonatas/sonata16-3.krn
!!!URL-pdf: https://github.com/craigsapp/beethoven-piano-sonatas/blob/master/reference-edition/sonata16-3.pdf
!!!ENC: Craig Stuart Sapp
!!!END: 2008/02/19
!!!EED: Craig Stuart Sapp
!!!EEV: 2018/06/24
